!!!COM: Scriabin, Alexander
!!!CDT: 1871/12/25/-1915/04/14/
!!!OTL: Etude, Op. 8, No. 9
!!!OPR: 12 Etudes, Op. 8
!!!OMD: Alla ballata
!!!OPS: Op. 8
!!!ONM: No. 9
!!!OCY: Russia
!!!ODT: 1894///
**kern	**dynam	**kern	**dynam
*staff2	*staff2	*staff1	*staff1
*clefF4	*clefF4	*clefG2	*clefG2
*k[f#c#g#d#a#]	*k[f#c#g#d#a#]	*k[f#c#g#d#a#]	*k[f#c#g#d#a#]
*met(C)	*met(C)	*met(C)	*met(C)
*M4/4	*M4/4	*M4/4	*M4/4
*MM132	*MM132	*MM132	*MM132
=1-	=1-	=1-	=1-
12EE'/ 12E'/L	.	[4G#/ [4g#/	p
12FF#'/ 12F#'/	.	.	.
12GGG#'/ 12GG#'/J	.	.	.
12DD#'/ 12D#'/L	.	16G#/] 16g#/LL]	.
.	.	16G#/ 16g#/	.
12EE'/ 12E'/	.	.	.
.	.	16G#/ 16g#/	.
12GGG#'/ 12GG#'/J	.	.	.
.	.	16G#/ 16g#/JJ	.
12CC#'/ 12C#'/L	.	4G#/ 4g#/	.
12DD#'/ 12D#'/	.	.	.
12GGG#'/ 12GG#'/J	.	.	.
12BBB'/ 12BB'/L	.	4G#/ 4g#/	.
12CC#'/ 12C#'/	.	.	.
12GGG#'/ 12GG#'/J	.	.	.
=2	=2	=2	=2
*^	*	*	*
4r	12AAA#'/ 12AA#'/L	.	4G#/ 4g#/	.
.	12BBB'/ 12BB'/	.	.	.
.	12GGG#'/ 12GG#'/J	.	.	.
(12B\ 12b\L	4d#/	.	4g#\ 4dd#\ (4gg#\	f
12A#\ 12a#\	.	.	.	.
12G#\ 12g#\J	.	.	.	.
12F#\ 12f#\L	4B/	.	4b\ 4dd#\ 4bb\	.
12G#\ 12g#\	.	.	.	.
12D#\ 12d#\J	.	.	.	.
12C#\ 12c#\L	4G#/	.	4dd#\ 4gg#\ 4ddd#\)	.
12D#\ 12d#\	.	.	.	.
12GG#\) 12G#\J	.	.	.	.
*v	*v	*	*	*
=3	=3	=3	=3
12AAn'/ 12An'/L	.	[4c#/ 4cc#/	p
12BB'/ 12B'/	.	.	.
12CC#'/ 12C#'/J	.	.	.
12GG#'/ 12G#'/L	.	16c#/] 16cc#/LL	.
.	.	16c#/ 16cc#/	.
12AA'/ 12A'/	.	.	.
.	.	16c#/ 16cc#/	.
12CC#'/ 12C#'/J	.	.	.
.	.	16c#/ 16cc#/JJ	.
12FF#'/ 12F#'/L	.	4c#/ 4cc#/	.
12GG#'/ 12G#'/	.	.	.
12CC#'/ 12C#'/J	.	.	.
12EE'/ 12E'/L	.	4c#/ 4cc#/	.
12FF#'/ 12F#'/	.	.	.
12CC#'/ 12C#'/J	.	.	.
=4	=4	=4	=4
*^	*	*	*
12DD#'/ 12D#'/L	4r	.	4c#/ 4cc#/	.
12EE'/ 12E'/	.	.	.	.
12CC#'/ 12C#'/J	.	.	.	.
*v	*v	*	*	*
*clefG2	*clefG2	*	*
*^	*	*	*
4g#\	12e/ (12ee/L	.	4cc#\ 4gg#\ (4ccc#\	f
.	12d#/ 12dd#/	.	.	.
.	12c#/ 12cc#/J	.	.	.
4e\	12B/ 12b/L	.	4ee\ 4gg#\ 4eee\	.
.	12c#/ 12cc#/	.	.	.
.	12G#/ 12g#/J	.	.	.
*v	*v	*	*	*
*clefF4	*clefF4	*	*
*^	*	*	*
12F#\ 12f#\L	4c#/	.	4gg#\ 4ccc#\ 4ggg#\)	.
12G#\ 12g#\	.	.	.	.
12C#\ 12c#\J)	.	.	.	.
*v	*v	*	*	*
=5	=5	=5	=5
*	*	*^	*
12CC#/ 12C#/L	.	4d#/ 4f##/ (4dd#/	2.r	.
12BB/ 12B/	.	.	.	.
12AA#/ 12A#/J	.	.	.	.
12GG##/ 12G##/L	.	8e'/ 8f##'/ 8ee'/L	.	.
12AA#/ 12A#/	.	.	.	.
.	.	8d#'/ 8f##'/ 8dd#'/J	.	.
12CC#/ 12C#/J	.	.	.	.
12BBB/ 12BB/L	.	8f##/ 8dd#/ 8ff##/L	.	.
12D#/ 12d#/	.	.	.	.
.	.	8g#/ 8dd#/ 8gg#/J	.	.
12GG#/ 12G#/J	.	.	.	.
4G#\ 4d#\ 4b\	.	6a#/ 6aa#/	4dd#\	.
.	.	12g#/ 12gg#/)	.	.
=6	=6	=6	=6	=6
12CC#/ 12C#/L	.	2.r	8e'/ 8f##'/ (8ee'/L	.
12BB/ 12B/	.	.	.	.
.	.	.	8d#'/ 8f##'/ 8dd#'/J	.
12AA#/ 12A#/J	.	.	.	.
12GG##/ 12G##/L	.	.	8c##'/ 8f##'/ 8cc##'/L	.
12AA#/ 12A#/	.	.	.	.
.	.	.	8d#'/ 8f##'/ 8dd#'/J	.
12CC#/ 12C#/J	.	.	.	.
12BBB/ 12BB/L	.	.	8f##/ 8ee/ 8ff##/L	.
12E/ 12e/	.	.	.	.
.	.	.	8g#/ 8ee/ 8gg#/J	.
12BB/ 12B/J	.	.	.	.
4G#\ 4e\ 4b\	.	4ee\	12a#/ 12aa#/L	.
.	.	.	12g#/ 12gg#/	.
.	.	.	12dd#/ (12ddd#/J)	.
=7	=7	=7	=7	=7
12CC#\ 12C#\L	.	4gg#\ 4ccc#\	8ff#/ 8fff#/L	ff
12G#\ 12g#\	.	.	.	.
.	.	.	8ee/ 8eee/J	.
12GG#\ 12G#\J	.	.	.	.
*clefG2	*clefG2	*	*	*
4e/ 4g#/ 4ee/	.	4gg#\	12dd#/ 12ddd#/L	.
.	.	.	8cc#/ 8ccc#/	.
.	.	.	24b/ 24bb/Jk	.
*clefF4	*clefF4	*	*	*
12GGG#/ 12GG#/L	.	4ee\	8b/ 8bb/L	.
12C#/ 12c#/	.	.	.	.
.	.	.	8a#/ 8aa#/J	.
12GG#/ 12G#/J	.	.	.	.
4B\ 4e\ 4b\	.	4ee\	6a#/ 6aa#/	.
.	.	.	12g#/ 12gg#/	.
=8	=8	=8	=8	=8
12CCC#/ 12CC#/L	.	4cc#\	12f#/ 12ff#/L	.
12G#/ 12g#/	.	.	12e/ 12ee/	.
12GG#/ 12G#/J	.	.	12d#/ 12dd#/J	.
4E\ 4G#\ 4e\	.	12d#/ 12dd#/L	4g#\	.
.	.	12c#/ 12cc#/	.	.
.	.	12B/ 12b/J	.	.
12DDD#/ 12DD#/L	.	2r	4B/ 4e/ 4g#/ 4b/	.
12CC#/ 12C#/	.	.	.	.
12CC##/ 12C##/J	.	.	.	.
12DD#/ 12D#/L	.	.	4A#/ 4d#/ 4f##/ 4a#/)	.
12CC##/ 12C##/	.	.	.	.
12DD#/ 12D#/J	.	.	.	.
*	*	*v	*v	*
=9	=9	=9	=9
12EE'/ 12E'/L	.	[4G#/ [4g#/	p
12FF#'/ 12F#'/	.	.	.
12GGG#'/ 12GG#'/J	.	.	.
12DD#'/ 12D#'/L	.	16G#/] 16g#/LL]	.
.	.	16G#/ 16g#/	.
12EE'/ 12E'/	.	.	.
.	.	16G#/ 16g#/	.
12GGG#'/ 12GG#'/J	.	.	.
.	.	16G#/ 16g#/JJ	.
12CC#'/ 12C#'/L	.	4G#/ 4g#/	.
12DD#'/ 12D#'/	.	.	.
12GGG#'/ 12GG#'/J	.	.	.
12BBB/ 12BB/L	.	4G#/ 4g#/	.
12CC#'/ 12C#'/	.	.	.
12GGG#'/ 12GG#'/J	.	.	.
=10	=10	=10	=10
12AAA#'/ 12AA#'/L	.	4G#/ 4g#/	.
12BBB'/ 12BB'/	.	.	.
12GGG#'/ 12GG#'/J	.	.	.
12B'\ 12e'\ (12b'\L	.	8g#\ 8ee\ (8gg#\L	ff
12A#'\ 12e'\ 12a#'\	.	.	.
.	.	8b\ 8ee\ 8bb\J	.
12G#'\ 12e'\ 12g#'\J	.	.	.
12F#'\ 12B'\ 12f#'\L	.	8cc#\ 8gg#\ 8ccc#\L	.
12E'\ 12B'\ 12e'\	.	.	.
.	.	8dd#\ 8gg#\ 8ddd#\J	.
12D#'\ 12B'\ 12d#'\J	.	.	.
12C#'\ 12E'\ 12c#'\L	.	8ee\ 8gg#\ 8eee\L	.
12BB'\ 12E'\ 12B'\	.	.	.
.	.	8gg#\ 8ggg#\J)	.
12GG#'\ 12E'\ 12G#'\J)	.	.	.
=11	=11	=11	=11
12AAn'/ 12An'/L	.	[4c#/ [4cc#/	.
12BB'/ 12B'/	.	.	.
12CC#'/ 12C#'/J	.	.	.
12GG#'/ 12G#'/L	.	16c#/] 16cc#/LL]	.
.	.	16c#/ 16cc#/	.
12AA'/ 12A'/	.	.	.
.	.	16c#/ 16cc#/	.
12CC#'/ 12C#'/J	.	.	.
.	.	16c#/ 16cc#/JJ	.
12FF#'/ 12F#'/L	.	4c#/ 4cc#/	.
12GG#'/ 12G#'/	.	.	.
12CC#'/ 12C#'/J	.	.	.
12EE'/ 12E'/L	.	4c#/ 4cc#/	.
12FF#'/ 12F#'/	.	.	.
12CC#'/ 12C#'/J	.	.	.
=12	=12	=12	=12
12DD#'/ 12D#'/L	.	4c#/ 4cc#/	.
12EE'/ 12E'/	.	.	.
12CC#'/ 12C#'/J	.	.	.
*clefG2	*clefG2	*	*
12e/ 12an/ (12ee/L	.	8cc#\ 8aan\ (8ccc#\L	.
12d#/ 12a/ 12dd#/	.	.	.
.	.	8ee\ 8aa\ 8eee\J	.
12c#/ 12a/ 12cc#/J	.	.	.
12B/ 12e/ 12b/L	.	8f#\ 8cc#\ 8ff#\L	.
12An/ 12e/ 12a/	.	.	.
.	.	8g#\ 8cc#\ 8gg#\J	.
12G#/ 12e/ 12g#/J	.	.	.
*clefF4	*clefF4	*	*
12F#\ 12An\ 12f#\L	.	8an\ 8cc#\ 8aan\L	.
12E\ 12A\ 12e\	.	.	.
.	.	8cc#\ 8ccc#\J)	.
12C#\ 12A\ 12c#\J)	.	.	.
=13	=13	=13	=13
*	*	*^	*
12CC#/ 12C#/L	.	4d#/ 4f##/ (4dd#/	2.r	.
12BB/ 12B/	.	.	.	.
12AA#/ 12A#/J	.	.	.	.
12GG##/ 12G##/L	.	8e/ 8f##/ 8ee/L	.	.
12AA#/ 12A#/	.	.	.	.
.	.	8d#/ 8f##/ 8dd#/J	.	.
12CC#/ 12C#/J	.	.	.	.
12BBB/ 12BB/L	.	8f##/ 8dd#/ 8ff##/L	.	.
12D#/ 12d#/	.	.	.	.
.	.	8g#/ 8dd#/ 8gg#/J	.	.
12GG#/ 12G#/J	.	.	.	.
4G#\ 4d#\ 4b\	.	6a#/ 6aa#/	4dd#\	.
.	.	12g#/ 12gg#/)	.	.
=14	=14	=14	=14	=14
12FF#\ 12F#\L	.	2.r	4g#\ 4b\ (4gg#\	.
12E\ 12e\	.	.	.	.
12D#\ 12d#\J	.	.	.	.
12C##\ 12c##\L	.	.	8an\ 8b\ 8aan\L	.
12D#\ 12d#\	.	.	.	.
.	.	.	8g#\ 8b\ 8gg#\J	.
12FF#\ 12F#\J	.	.	.	.
12EE\ 12E\L	.	.	8b\ 8gg#\ 8bb#\L	.
12G#\ 12g#\	.	.	.	.
.	.	.	8cc#\ 8gg#\ 8ccc#\J	.
12C#\ 12c#\J	.	.	.	.
*clefG2	*clefG2	*	*	*
4c#/ 4g#/ 4ee/	.	4gg#/	12dd#\ 12ddd#\L	.
.	.	.	12cc#\ 12ccc#\)	.
.	.	.	12g#\ (12gg#\J	.
*clefF4	*clefF4	*	*	*
=15	=15	=15	=15	=15
12FFF#/ 12FF#/L	.	4ddd#/	8gg#\ 8ggg#\L	.
12F#/ 12f#/	.	.	.	.
.	.	.	&(8ff#\&) 8fff#\J	.
12D#/ 12d#/J	.	.	.	.
4B\ 4f#\ 4b\	.	4bb/	12ee\ 12eee\L	.
.	.	.	8dd#\ 8ddd#\	.
.	.	.	24cc#\ 24ccc#\Jk	.
12FFF#/ 12FF#/L	.	4ff#/	8cc#\ 8ccc#\L	.
12F#/ 12f#/	.	.	.	.
.	.	.	8b\ 8bb\J	.
12Dn/ 12dn/J	.	.	.	.
4B\ 4e#\ 4b\	.	4ee#/	6a#\ 6aa#\	.
.	.	.	12g#\ 12gg#\	.
=16	=16	=16	=16	=16
8FFF#/ 8FF#/L	.	4r	12g#\ 12gg#\L	.
.	.	.	12f#\ 12ff#\	.
8FF#/ 8F#/J	.	.	.	.
.	.	.	12e\ 12ee\J	.
8E\ 8A#\ 8e\L	.	12d#/ 12dd#/L	4a#\	.
.	.	12c#/ 12cc#/	.	.
8FF#\ 8F#\J	.	.	.	.
.	.	12d#/ 12dd#/J	.	.
12BBBB/ 12BBB/L	.	4r	4B/ 4d#/ 4b/)	.
12GG#/ 12G#/	.	.	.	.
12GGn/ 12Gn/J	.	.	.	.
12FF#/ 12F#/L	.	4r	4r	.
12BBB/ 12BB/	.	.	.	.
12FFF#/ 12FF#/J	.	.	.	.
*	*	*v	*v	*
*	*	*clefF4	*clefF4
=17	=17	=17	=17
[4BBB/ [4BB/	.	12Gn'\ 12gn'\L	.
.	.	12An\ 12an\	.
.	.	12BB'\ 12B'\J	.
16BBB/] 16BB/LL]	.	12F#\ 12f#\L	.
16BBB/ 16BB/	.	.	.
.	.	12G'\ 12g'\	.
16BBB/ 16BB/	.	.	.
.	.	12BB'\ 12B'\J	.
16BBB/ 16BB/JJ	.	.	.
4BBB/ 4BB/	.	12E'\ 12e'\L	.
.	.	12F#'\ 12f#'\	.
.	.	12BB'\ 12B'\J	.
4BBB/ 4BB/	.	12Dn'\ 12dn'\L	.
.	.	12E'\ 12e'\	.
.	.	12BB'\ 12B'\J	.
=18	=18	=18	=18
*	*	*^	*
4BBBB/ 4BBB/	.	4r	12C#'\ 12c#'\L	.
.	.	.	12D#'\ 12dn'\	.
.	.	.	12BB'\ 12B'\J	.
*	*	*v	*v	*
*	*	*clefG2	*clefG2
*	*	*^	*
8Fn\ 8G#\ 8d#\ 8fn\L	.	4gg#/	12ddn\ 12dddn\L	f
.	.	.	12cc#\ 12ccc#\	.
8BBB\ 8BB\J	.	.	.	.
.	.	.	12b\ 12bb\J	.
8E\ 8G#\ 8d#\ 8e\L	.	4ee/	12a#\ 12aa#\L	.
.	.	.	12b\ 12bb\	.
8BBB\ 8BB\J	.	.	.	.
.	.	.	12e\ 12ee\J	.
8Dn\ 8G#\ 8d#\L	.	4b/	12fn\ 12ffn\L	.
.	.	.	12e\ 12ee\	.
8BBB\ 8BB\J	.	.	.	.
.	.	.	12dn\ 12dd\J	.
=19	=19	=19	=19	=19
12CCn'/ 12Cn'/L	.	[4g#/	4G#\ 4B-\ (4fn\	pp
12DDn'/ 12Dn'/	.	.	.	.
12BBB-'/ 12BB-'/J	.	.	.	.
12DD'/ 12D'/L	.	16g#/LL]	8G#\ 8B-\ 8f\L	.
.	.	16g#/	.	.
12EE-'/ 12E-'/	.	.	.	.
.	.	16g#/	8G#\ 8B-\ 8e-\J	.
12BBB-'/ 12BB-'/J	.	.	.	.
.	.	16g#/JJ	.	.
12EEn'/ 12En'/L	.	4g#/	4G#\ 4B-\ 4dn\	.
12FFn'/ 12Fn'/	.	.	.	.
12BBB-'/ 12BB-'/J	.	.	.	.
12EE#'/ 12E#'/L	.	4an/	4An\ 4d\	.
12FF#'/ 12F#'/	.	.	.	.
12AAAn'/ 12AAn'/J	.	.	.	.
*	*	*v	*v	*
=20	=20	=20	=20
12AAAn\ 12AAn\L	.	4f#\ 4cc#\ 4ff#\	.
12An\ 12an\	.	.	.
12G#\ 12g#\J	.	.	.
12Gn\ 12gn\L	.	4e/ 4cc#/ 4ee/	.
12BB\ 12B\	.	.	.
12BB-\ 12B-\J	.	.	.
12AA\ 12A\L	.	4.dn/ 4.f#/ 4.ddn/)	.
12BBn\ 12Bn\	.	.	.
12AA\ 12A\J	.	.	.
12GG#\ 12G#\L	.	.	.
12AA\ 12A\	.	.	.
.	.	8r	.
12DDn\ 12Dn\J	.	.	.
*	*	*clefF4	*clefF4
=21	=21	=21	=21
[4FFF#/ [4FF#/	.	12Dn'\ 12dn'\L	.
.	.	12E'\ 12e'\	.
.	.	12FF#'\ 12F#'\J	.
16FFF#/] 16FF#/LL]	.	12C#'\ 12c#'\L	.
16FFF#/ 16FF#/	.	.	.
.	.	12D'\ 12d'\	.
16FFF#/ 16FF#/	.	.	.
.	.	12FF#'\ 12F#'\J	.
16FFF#/ 16FF#/JJ	.	.	.
4FFF#/ 4FF#/	.	12BB'\ 12B'\L	.
.	.	12C#'\ 12c#'\	.
.	.	12FF#'\ 12F#'\J	.
4FFF#/ 4FF#/	.	12AAn'\ 12An'\L	.
.	.	12BB'\ 12B'\	.
.	.	12FF#'\ 12F#'\J	.
=22	=22	=22	=22
*	*	*^	*
4FFF#/ 4FF#/	.	4r	12GG#'/ 12G#'/L	.
.	.	.	12AAn'/ 12An'/	.
.	.	.	12FF#'/ 12F#'/J	.
*	*	*v	*v	*
*	*	*clefG2	*clefG2
*	*	*^	*
8Cn/ 8D#/ 8An/ 8cn/L	.	12an\ 12aan\L	4dd#/	ff
.	.	12g#\ 12gg#\	.	.
8FFF#/ 8FF#/J	.	.	.	.
.	.	12f#\ 12ff#\J	.	.
8BB/ 8D#/ 8A/ 8B/L	.	4b\	12e#/ 12ee#/L	.
.	.	.	12f#/ 12ff#/	.
8FFF#/ 8FF#/J	.	.	.	.
.	.	.	12B/ 12b/J	.
8AAn/ 8D#/ 8A/L	.	4f#\	12cn/ 12ccn/L	.
.	.	.	12B/ 12b/	.
8FFF#/ 8FF#/J	.	.	.	.
.	.	.	12An/ 12a/J	.
*	*	*v	*v	*
*	*	*clefF4	*clefF4
=23	=23	=23	=23
*	*	*^	*
12GGGn'/ 12GGn'/L	.	([4d#/	4D#\ 4Fn\ 4cn\	pp
12AAAn'/ 12AAn'/	.	.	.	.
12FFFn'/ 12FFn'/J	.	.	.	.
12AAA'/ 12AA'/L	.	16d#/LL]	8D#\ 8F\ 8c\L	.
.	.	16d#/	.	.
12BBB-'/ 12BB-'/	.	.	.	.
.	.	16d#/	8D#\ 8F\ 8B-\J	.
12FFF'/ 12FF'/J	.	.	.	.
.	.	16d#/JJ	.	.
12BBBn'/ 12BBn'/L	.	4d#/	4D#\ 4F\ 4An\	.
12CCn'/ 12Cn'/	.	.	.	.
12FFF'/ 12FF'/J	.	.	.	.
12BBB#'/ 12BB#'/L	.	4e/	4E\ 4A\	.
12CC#'/ 12C#'/	.	.	.	.
12EEE'/ 12EE'/J	.	.	.	.
*	*	*v	*v	*
*	*	*clefG2	*clefG2
=24	=24	=24	=24
(12EE\ 12E\L	.	4c#/ 4g#/ 4cc#/	.
12E\ 12e\	.	.	.
12D#\ 12d#\J	.	.	.
12Dn\ 12dn\L	.	4B/ 4g#/ 4b/	.
12FF#\ 12F#\	.	.	.
12FFn\ 12Fn\J	.	.	.
12EE/ 12E/L	.	4.An/ 4.c#/ 4.an/)	.
12FF#/ 12F#/	.	.	.
12EE/ 12E/J	.	.	.
12DD#/ 12D#/L	.	.	.
12EE/ 12E/	.	.	.
.	.	8r	.
12AAAn/) 12AAn/J	.	.	.
=25	=25	=25	=25
*	*	*^	*
12BBB'/ 12BB'/L	.	(4f##/	4F##\ 4An\ 4e\	.
12CC#'/ 12C#'/	.	.	.	.
12AAAn'/ 12AAn'/J	.	.	.	.
12CC#'/ 12C#'/L	.	&(16f##/LL&)	8F##\ 8A\ 8e\L	.
.	.	16f##/	.	.
12DDn'/ 12Dn'/	.	.	.	.
.	.	16f##/	8F##\ 8A\ 8dn\J	.
12AAA'/ 12AA'/J	.	.	.	.
.	.	16f##/JJ	.	.
12DD#'/ 12D#'/L	.	4f##/	4F##\ 4A\ 4c#\	.
12EE'/ 12E'/	.	.	.	.
12AAA'/ 12AA'/J	.	.	.	.
12DD#'/ 12D#'/L	.	4g#/	4G#\ 4c#\	.
12EE'/ 12E'/	.	.	.	.
12GGG#'/ 12GG#'/J	.	.	.	.
*	*	*v	*v	*
=26	=26	=26	=26
12GGG#\ 12GG#\L	.	4e/ 4b#/ 4ee/	.
12An\ 12an\	.	.	.
12F##\ 12f##\J	.	.	.
12A\ 12a\L	.	4d#/ 4b#/ 4dd#/)	.
12G#\ 12g#\	.	.	.
12GG#\ 12G#\J	.	.	.
12GGG#/ 12GG#/L	.	8r	.
12GG#/ 12G#/	.	.	.
.	.	4G#/ (4g#/	mf
12FF##/ 12F##/J	.	.	.
12FF#/ 12F#/L	.	.	.
12EE/ 12E/	.	.	.
.	.	8G#/ 8g#/	.
12DD#/ 12D#/J	.	.	.
=27	=27	=27	=27
*	*	*^	*
12BBB#/ 12BB#/L	p	4G#/ 4g#/	4e\	.
12CC#/ 12C#/	.	.	.	.
12CC#/ 12C#/J	.	.	.	.
12DDn/ 12Dn/L	.	8An/ 8an/L	4B#\ 4f#\	.
12DD#/ 12D#/	.	.	.	.
.	.	8G#/ 8g#/J	.	.
12DD#/ 12D#/J	.	.	.	.
12DD#/ 12D#/L	.	8B#/ 8b#/L	4g#\	.
12EE/ 12E/	.	.	.	.
.	.	8c#/ 8cc#/J	.	.
12EE/ 12E/J	.	.	.	.
12D#\ 12d#\L	.	8g#/ 8gg#/L	4cc#\	.
12E\ 12e\	.	.	.	.
.	.	8g#/ 8gg#/J)	.	.
12E\ 12e\J	.	.	.	.
=28	=28	=28	=28	=28
12E\ 12e\L	.	4cc#\	8g#/ 8gg#/L	.
12AAn\ 12An\	.	.	.	.
.	.	.	8f##/ 8ff##/J	.
12AA\ 12A\J	.	.	.	.
12AA/ 12A/L	.	4cc#\	2f#/ 2ff#/	.
12DDn/ 12Dn/	.	.	.	.
12DD/ 12D/J	.	.	.	.
12DD/ 12D/L	.	4b#\	.	.
12DD#/ 12D#/	.	.	.	.
12DD#/ 12D#/J	.	.	.	.
12GG#/ 12G#/L	.	4b#\	8e/ 8ee/L	.
12FF#/ 12F#/	.	.	.	.
.	.	.	8d#/ 8dd#/J	.
12FF#/ 12F#/J	.	.	.	.
=29	=29	=29	=29	=29
12DD#/ 12D#/L	.	4g#\ 4cc#\	8f#/ 8ff#/L	.
12EE/ 12E/	.	.	.	.
.	.	.	8e/ 8ee/J	.
12EE/ 12E/J	.	.	.	.
12DD#/ 12D#/L	.	4g#\ 4cc#\	8f#/ 8ff#/L	.
12EE/ 12E/	.	.	.	.
.	.	.	8e/ 8ee/J	.
12EE/ 12E/J	.	.	.	.
12EE#/ 12E#/L	.	4an\ 4cc#\	8en/ 8een/L	.
12FF#/ 12F#/	.	.	.	.
.	.	.	8d#/ 8dd#/J	.
12FF#/ 12F#/J	.	.	.	.
12FF#/ 12F#/L	.	4a\ 4cc#\	8e/ 8ee/L	.
12FF##/ 12F##/	.	.	.	.
.	.	.	8d#/ 8dd#/J	.
12FF##/ 12F##/J	.	.	.	.
*	*	*v	*v	*
=30	=30	=30	=30
12FF##/ 12F##/L	.	4d#/ 4b#/ 4dd#/	.
12GG#/ 12G#/	.	.	.
12GG#/ 12G#/J	.	.	.
12FF##/ 12F##/L	.	4e/ 4cc#/ 4ee/	.
12GG#/ 12G#/	.	.	.
12GG#/ 12G#/J	.	.	.
12FF##/ 12F##/L	.	2d#/ 2b#/ 2dd#/	.
12GG#/ 12G#/	.	.	.
12GG#/ 12G#/J	.	.	.
12AAn/ 12An/L	.	.	.
12GG#/ 12G#/	.	.	.
12GG#/ 12G#/J	.	.	.
=31	=31	=31	=31
*	*	*^	*
12BBB#/ 12BB#/L	.	4G#/ (4g#/	4e\	.
12CC#/ 12C#/	.	.	.	.
12CC#/ 12C#/J	.	.	.	.
12DDn/ 12Dn/L	.	8An/ 8an/L	4B#\ 4f#\	.
12DD#/ 12D#/	.	.	.	.
.	.	8G#/ 8g#/J	.	.
12DD#/ 12D#/J	.	.	.	.
12DD#/ 12D#/L	.	8B#/ 8b#/L	4g#\	.
12EE/ 12E/	.	.	.	.
.	.	8c#/ 8cc#/J	.	.
12EE/ 12E/J	.	.	.	.
12D#\ 12d#\L	.	8g#/ 8gg#/L	4cc#\	.
12E\ 12e\	.	.	.	.
.	.	8g#/ 8gg#/J	.	.
12E\ 12e\J	.	.	.	.
=32	=32	=32	=32	=32
12E\ 12e\L	.	8g#/ 8gg#/L	4cc##\	.
12AA#\ 12A#\	.	.	.	.
.	.	8f##/ 8ff##/J	.	.
12AA#\ 12A#\J	.	.	.	.
12AA#/ 12A#/L	.	[4a#/ [4aa#/	2cc##\	.
12EE/ 12E/	.	.	.	.
12EE/ 12E/J	.	.	.	.
12EE\ 12E\L	.	8a#/] 8aa#/L]	.	.
12AA#\ 12A#\	.	.	.	.
.	.	8g#/ 8gg#/J	.	.
12AA#\ 12A#\J	.	.	.	.
12AA#\ 12A#\L	.	8f#/ 8ff#/L	4g#\ 4cc##\	.
12AA#\ 12A#\	.	.	.	.
.	.	8e/ 8ee/J)	.	.
12AA#\ 12A#\J	.	.	.	.
=33	=33	=33	=33	=33
12DD#\ 12D#\L	.	4d#/ 4g#/ 4dd#/	4r	.
12AA#\ 12A#\	.	.	.	.
12BB\ 12B\J	.	.	.	.
12C#\ 12c#\L	.	4g#\	8e/ 8ee/L	.
12AA#\ 12A#\	.	.	.	.
.	.	.	8d#/ 8dd#/J	.
12BB\ 12B\J	.	.	.	.
12DD#\ 12D#\L	.	8f##\ 8ff##\L	4dd#/	.
12AA#\ 12A#\	.	.	.	.
.	.	8g#\ 8gg#\J	.	.
12BB\ 12B\J	.	.	.	.
12C#\ 12c#\L	.	8ee\ 8eee\L	4gg#/	.
12AA#\ 12A#\	.	.	.	.
.	.	8ee\ 8eee\J	.	.
12BB\ 12B\J	.	.	.	.
*	*	*v	*v	*
=34	=34	=34	=34
12DD#\ 12D#\L	.	4cc#\ 4ff##\ 4eee\	.
12GG##\ 12G##\	.	.	.
12AA#\ 12A#\J	.	.	.
12BB\ 12B\L	.	4cc#\ 4ff##\ 4ddd#\	.
12GG##\ 12G##\	.	.	.
12AA#\ 12A#\J	.	.	.
12DD#\ 12D#\L	.	4r	.
12GG##\ 12G##\	.	.	.
12AA#\ 12A#\J	.	.	.
12BB\ 12B\L	.	4F##/ 4f##/	.
12AA#\ 12A#\	.	.	.
12DD#\ 12D#\J	.	.	.
=35	=35	=35	=35
12EE/ 12E/L	.	[4G#/ [4g#/	p
12FF#/ 12F#/	.	.	.
12GGG#/ 12GG#/J	.	.	.
12DD#/ 12D#/L	.	16G#/] 16g#/LL]	.
.	.	16G#/ 16g#/	.
12EE/ 12E/	.	.	.
.	.	16G#/ 16g#/	.
12GGG#/ 12GG#/J	.	.	.
.	.	16G#/ 16g#/JJ	.
12CC#/ 12C#/L	.	4G#/ 4g#/	.
12DD#/ 12D#/	.	.	.
12GGG#/ 12GG#/J	.	.	.
12BBB/ 12BB/L	.	4G#/ 4g#/	.
12CC#/ 12C#/	.	.	.
12GGG#/ 12GG#/J	.	.	.
=36	=36	=36	=36
12AAA#/ 12AA#/L	.	4G#/ 4g#/	.
12BBB/ 12BB/	.	.	.
12GGG#/ (12GG#/J	.	.	.
12B'\ 12e'\ 12b'\L	.	8g#\ 8ee\ (8gg#\L	f
12A#'\ 12e'\ 12a#'\	.	.	.
.	.	8b\ 8ee\ 8bb\J	.
12G#'\ 12e'\ 12g#'\J	.	.	.
12F#'\ 12B'\ 12f#'\L	.	8cc#\ 8gg#\ 8ccc#\L	.
12E'\ 12B'\ 12e'\	.	.	.
.	.	8dd#\ 8gg#\ 8ddd#\J	.
12D#'\ 12B'\ 12d#'\J	.	.	.
12C#'\) 12E'\ 12c#'\L	.	8ee\ 8gg#\ 8eee\L	.
12BB'\ 12E'\ 12B'\	.	.	.
.	.	8gg#\ 8ggg#\J)	.
12GG#'\ 12E'\ 12G#'\J	.	.	.
=37	=37	=37	=37
12AAn/ 12An/L	.	[4c#/ [4cc#/	p
12BB/ 12B/	.	.	.
12CC#/ 12C#/J	.	.	.
12GG#/ 12G#/L	.	16c#/] 16cc#/LL]	.
.	.	16c#/ 16cc#/	.
12AA/ 12A/	.	.	.
.	.	16c#/ 16cc#/	.
12CC#/ 12C#/J	.	.	.
.	.	16c#/ 16cc#/JJ	.
12FF#/ 12F#/L	.	4c#/ 4cc#/	.
12GG#/ 12G#/	.	.	.
12CC#/ 12C#/J	.	.	.
12EE/ 12E/L	.	4c#/ 4cc#/	.
12FF#/ 12F#/	.	.	.
12CC#/ 12C#/J	.	.	.
=38	=38	=38	=38
12DD#/ 12D#/L	.	4c#/ 4cc#/	.
12EE/ 12E/	.	.	.
12CC#/ 12C#/J	.	.	.
*clefG2	*clefG2	*	*
12e/ 12an/ 12ee/L	.	8cc#\ 8aan\ (8ccc#\L	f
(12d#/ 12a/ 12dd#/	.	.	.
.	.	8ee\ 8aa\ 8eee\J	.
12c#/ 12a/ 12cc#/J	.	.	.
12B/ 12e/ 12b/L	.	8f#\ 8cc#\ 8ff#\L	.
12An/ 12e/ 12a/	.	.	.
.	.	8g#\ 8cc#\ 8gg#\J	.
12G#/) 12e/ 12g#/J	.	.	.
*clefF4	*clefF4	*	*
12F#\ 12An\ 12f#\L	.	8an\ 8cc#\ 8aan\L	.
12E\ 12A\ 12e\	.	.	.
.	.	8cc#\ 8ccc#\J)	.
12C#\ 12A\ 12c#\J	.	.	.
=39	=39	=39	=39
*	*	*^	*
12CC#/ 12C#/L	.	2.r	4d#/ 4f##/ (4dd#/	.
12BB/ 12B/	.	.	.	.
12AA#/ 12A#/J	.	.	.	.
12GG##/ 12G##/L	.	.	8e/ 8f##/ 8ee/L	.
12AA#/ 12A#/	.	.	.	.
.	.	.	8d#/ 8f##/ 8dd#/J	.
12CC#/ 12C#/J	.	.	.	.
12BBB/ 12BB/L	.	.	8f##/ 8dd#/ 8ff##/L	.
12D#/ 12d#/	.	.	.	.
.	.	.	8g#/ 8dd#/ 8gg#/J	.
12GG#/ 12G#/J	.	.	.	.
4G#\ 4d#\ 4b\	.	4dd#\	6a#/ 6aa#/	.
.	.	.	12g#/ 12gg#/)	.
=40	=40	=40	=40	=40
12FF#\ 12F#\L	.	2.r	4g#\ 4b#\ (4gg#\	.
12E\ 12e\	.	.	.	.
12D#\ 12d#\J	.	.	.	.
12C##\ 12c##\L	.	.	8an\ 8b#\ 8aan\L	.
12D#\ 12d#\	.	.	.	.
.	.	.	8g#\ 8b#\ 8gg#\J	.
12FF#\ 12F#\J	.	.	.	.
12EE\ 12E\L	.	.	8b#\ 8gg#\ 8bb#\L	.
12G#\ 12g#\	.	.	.	.
.	.	.	8cc#\ 8gg#\ 8ccc#\J	.
12C#\ 12c#\J	.	.	.	.
*clefG2	*clefG2	*	*	*
4c#/ 4g#/ 4ee/	.	4gg#/	12dd#\ 12ddd#\L	.
.	.	.	12cc#\ 12ccc#\)	.
.	.	.	12g#\ 12gg#\J	.
*clefF4	*clefF4	*	*	*
=41	=41	=41	=41	=41
12DDD#/ 12DD#/L	.	4gg#/	8ee\ 8eee\L	ff
12D#/ 12d#/	.	.	.	.
.	.	.	8dd#\ (8ddd#\J	.
12BB/ 12B/J	.	.	.	.
4G#\ 4d#\ 4g#\	.	4gg#/	12cc#\ 12ccc#\L	.
.	.	.	8b\ 8bb\	.
.	.	.	24a#\ 24aa#\Jk	.
12DD#/L	.	4ee/	8a#\ 8aa#\L	.
12E/ 12e/	.	.	.	.
.	.	.	8g#\ 8gg#\J	.
12BB/ 12B/J	.	.	.	.
4G#\ 4c##\ 4g#\	.	4cc##/	6f#\ 6ff#\	.
.	.	.	12e\ 12ee\	.
=42	=42	=42	=42	=42
8DDD#/ 8DD#/L	.	12e/ 12ee/L	4r	.
.	.	12d#/ 12dd#/	.	.
8DD#/ 8D#/J	.	.	.	.
.	.	12c#/ 12cc#/J	.	.
8D#\ 8c#\L	.	12B/ 12b/L	4f##\	.
.	.	12A#/ 12a#/	.	.
8DD#\ 8D#\J	.	.	.	.
.	.	12B/ 12b/J)	.	.
12EE\ 12E\L	.	2r	2G#/ 2e/ 2g#/	.
12AA#\ 12A#\	.	.	.	.
12BB\ 12B\J	.	.	.	.
12C#\ 12c#\L	.	.	.	.
12BB\ 12B\	.	.	.	.
12EE\ 12E\J	.	.	.	.
*	*	*v	*v	*
=43	=43	=43	=43
12BBB#/ 12BB#/L	.	4A#/ 4e/ 4g#/ 4a#/	p
12CC#/ 12C#/	.	.	.
12GG#/ 12G#/J	.	.	.
12CC##/ 12C##/L	.	4B#/ 4f#/ 4g#/ 4b#/	.
12DD#/ 12D#/	.	.	.
12GG#/ 12G#/J	.	.	.
12DD#/ 12D#/L	.	4c#/ 4g#/ 4cc#/	.
12EE/ 12E/	.	.	.
12GG#/ 12G#/J	.	.	.
12DD#/ 12D#/L	.	4c##/ 4g#/ 4bn/ 4cc##/	.
12EE/ 12E/	.	.	.
12GG#/ 12G#/J	.	.	.
=44	=44	=44	=44
12CC##/ 12C##/L	.	4d#/ 4g#/ 4b/ 4dd#/	f
12DD#/ 12D#/	.	.	.
12GG#/ 12G#/J	.	.	.
12B\ 12d#\ 12b\L	.	12bb^\ 12ddd#^\ 12bbb^\L	.
12A#\ 12a#\	.	12aa#\ 12aaa#\	.
12G#\ 12g#\J	.	12gg#\ 12ggg#\J	.
12F#\ 12f#\L	.	12ff#\ 12fff#\L	.
12E\ 12e\	.	12ee\ 12eee\	.
12D#\ 12d#\J	.	12dd#\ 12ddd#\J	.
12C#\ 12c#\L	.	12cc#\ 12ccc#\L	.
12BB\ 12B\	.	12b\ 12bb\	.
12GG#\ 12G#\J	.	12g#\ 12gg#\J	.
=45	=45	=45	=45
*^	*	*^	*
12CC##/ 12C##/L	4GG#\	.	4g#\	12c##/ 12cc##/L	.
12DD#/ 12D#/	.	.	.	12d#/ 12dd#/	.
12GG#/ 12G#/J	.	.	.	12g#/ 12gg#/J	.
12BB^/ 12D#^/ 12B^/L	4r	.	4r	12f#/ 12ff#/L	.
12AA#/ 12A#/	.	.	.	12e/ 12ee/	.
12GG#/ 12G#/J	.	.	.	12d#/ 12dd#/J	.
12FF#/ 12F#/L	4r	.	12b^\ 12dd#^\ 12bb^\L	4r	.
12EE/ 12E/	.	.	12a#\ 12aa#\	.	.
12DD#/ 12D#/J	.	.	12g#\ 12gg#\J	.	.
12CC#/ 12C#/L	4r	.	4r	12c#/ 12cc#/L	.
12BBB/ 12BB/	.	.	.	12B/ 12b/	.
12GGG#/ 12GG#/J	.	.	.	12G#/ 12g#/J	.
*v	*v	*	*	*	*
*	*	*v	*v	*
=46	=46	=46	=46
[4DDD#/ 4DD#/	.	2D#/ 2d#/	.
6DDD#/] 6DD#/	.	.	.
[12DDD#/ [12DD#/	.	.	.
4DDD#/_ 4DD#/_	p	2D#/ 2G#/ 2A#/ 2d#/	.
6DDD#/] 6DD#/]	.	.	.
[12DDD#/ 12DD#/	.	.	.
=47	=47	=47	=47
6DDD#/] 6GGG#/ 6DD#/	pp	4D#/ 4G#/ 4B/ 4d#/	.
12GGG#/ 12GG#/	.	.	.
6GGG#/ 6GG#/	.	4D#/ 4G#/ 4A#/ 4d#/	.
12DDD#/ 12DD#/	.	.	.
6DDD#/ 6DD#/	.	4D#/ 4G#/ 4B/ 4d#/	.
[12GGG#/ 12GG#/	.	.	.
6GGG#/] 6GG#/	ppp	4D#/ 4G#/ 4A#/ 4d#/	.
12DDD#/ 12DD#/	.	.	.
=48	=48	=48	=48
*k[b-e-a-d-]	*k[b-e-a-d-]	*k[b-e-a-d-]	*k[b-e-a-d-]
2r	.	1r	.
4r	.	.	.
8r	.	.	.
[8E-\ [8e-\	.	.	.
=49	=49	=49	=49
*M12/8	*M12/8	*M12/8	*M12/8
*MM198	*MM198	*MM198	*MM198
4E-\] 4e-\]	.	4.c/ 4.a-/ 4.cc/	pp
[8AA-\ [8A-\	.	.	.
4AA-\] 4A-\]	.	4.B-/ 4.e-/ 4.a-/ 4.b-/	.
[8EE-/ 8E-/	.	.	.
4EE-/] 4E-/	.	4.c/ 4.e-/ 4.a-/ 4.cc/	.
8AA-\ [8A-\	.	.	.
4AA-\ 4A-\]	.	4.d-/ 4.e-/ 4.a-/ 4.b-/ 4.ee-/	.
8BB-\ [8B-\	.	.	.
=50	=50	=50	=50
*M4/4	*M4/4	*M4/4	*M4/4
*MM132	*MM132	*MM132	*MM132
*^	*	*^	*
6BB-\ 6B-\]	4r	.	4r	4d-/ 4e-/ 4g/ 4b-/ 4ee-/	.
12EE-/ 12E-/	.	.	.	.	.
4E-\ 4d-\ 4g\	4r	.	6cc\ (6ccc\	4gg/	p
.	.	.	12b-\ 12bb-\	.	.
4B-\ [4d-\ 4a-\	4r	.	12b-\ 12bb-\L	8ff/L	.
.	.	.	12f\ 12ff\)	.	.
.	.	.	.	8a-/J	.
.	.	.	12e-\ 12ee-\J	.	.
6d-/]	12c\L	.	4e-\ 4ee-\	4g/	.
.	12B-\	.	.	.	.
[12e-/	12E-\J	.	.	.	.
*v	*v	*	*	*	*
*	*	*v	*v	*
=51	=51	=51	=51
6E-\ 6e-\]	.	4c/ 4a-/	.
[12AA-\ [12A-\	.	.	.
6AA-\] 6A-\]	.	4B-/ 4e-/ 4a-/ 4b-/	.
[12EE-/ 12E-/	.	.	.
6EE-/] 6E-/	.	4c/ 4e-/ 4a-/ 4cc/	.
12AA-\ [12A-\	.	.	.
6AA-\ 6A-\]	.	4dn/ 4f/ 4cc/ 4ddn/	.
[12AA-\ [12A-\	.	.	.
=52	=52	=52	=52
*^	*	*^	*
4r	6AA-\] 6A-\]	.	4r	4dn/ 4f/ 4bn/ 4ddn/	.
.	12GG\ 12G\	.	.	.	.
4r	4BBB-/ 4AA-/ 4Dn/	.	6ee-\ 6eee-\	(4bb-/	.
.	.	.	12ddn\ 12dddn\	.	.
4FFn/ 4AA-/ (4E-/	4r	.	12dd\ 12ddd\L	8aa-/L	.
.	.	.	12a-\ 12aa-\	.	.
.	.	.	.	8cc/J	.
.	.	.	12g\ 12gg\J	.	.
6AA-/)	12GG\L	.	4g\ 4gg\)	4bn/	.
.	12FF\	.	.	.	.
12BB-/	[12BBB-\J	.	.	.	.
*v	*v	*	*	*	*
*	*	*v	*v	*
=53	=53	=53	=53
*clefG2	*clefG2	*	*
*M12/8	*M12/8	*M12/8	*M12/8
*MM198	*MM198	*MM198	*MM198
4G-/] 4g/	.	4.e-/ 4.cc/ 4.ee-/	.
*clefF4	*clefF4	*	*
8C\ [8c\	.	.	.
4C\ 4c\]	.	4.dn/ 4.g/ 4.cc/ 4.ddn/	.
[8GG/ 8G/	.	.	.
4GG/] 4G/	.	4.e-/ 4.g/ 4.cc/ 4.ee-/	.
[8C\ [8c\	.	.	.
4C\] 4c\]	.	4.f\ 4.an\ 4.ee-\ 4.ff\	.
8C-\ [8c-\	.	.	.
=54	=54	=54	=54
4C\ 4c-\]	.	4.g\ 4.ee-\ 4.gg\	.
8BB-\ [8B-\	.	.	.
8BB-\ 8B-\L]	.	4.b-\ 4.ee-\ 4.bb-\	.
8E-\ 8e-\	.	.	.
8F\ 8f\J	.	.	.
*clefG2	*clefG2	*	*
8G/ 8g/L	.	4.ee-\ 4.bb-\ 4.eee-\	.
8An/ 8an/	.	.	.
8B-/ 8b-/J	.	.	.
4g\ 4gg\	.	4.ddn\ 4.bb-\ 4.dddn\	.
[8g\ [8gg\	.	.	.
=55	=55	=55	=55
*	*	*^	*
4g\] 4gg\]	.	4.r	4.dd-\ 4.bb-\ 4.ddd-\	.
(8G/ 8g/	.	.	.	.
8A-/ 8a-/L	.	4.r	4.cc\ 4.een\ 4.ccc\	.
8G/) 8g/	.	.	.	.
8C/ 8c/J	.	.	.	.
4.F/ 4.f/	.	4.cc/ 4.ff/	4b-\ 4bb-\	.
.	.	.	8a-\ 8aa-\	.
*clefF4	*clefF4	*	*	*
[4.C\ [4.c\	.	4.cc/ 4.ff/	8b-\ 8bb-\L	.
.	.	.	8a-\ 8aa-\	.
.	.	.	8c\ 8cc\J	.
*	*	*v	*v	*
=56	=56	=56	=56
4C\] 4c\]	.	4.g\ 4.a-\ 4.ddn\ 4.gg\	.
8BB-\ 8B-\	.	.	.
8C\ 8c\L	.	4.f\ 4.a-\ 4.dd\ 4.ff\	.
8BB-\ 8B-\	.	.	.
[8BBB-\ [8BB-\J	.	.	.
8BBB-/] 8BB-/L]	.	8e-/ 8g/ 8ee-/	pp
(8GG'/ 8G'/	.	8r	.
8FF'/ 8F'/J	.	8r	.
8GG'/ 8G'/L	.	4r	.
8FF'/ 8F'/	.	.	.
[8EE-'/) [8E-'/J	.	8r	.
=57	=57	=57	=57
4EE-/] 4E-/]	.	4.F/ 4.A-/ 4.d-/ 4.f/	p
[8DD-/ 8D-/	.	.	.
4DD-/] 4D-/	.	4.E-/ 4.A-/ 4.d-/ 4.e-/	.
[8AAA-/ 8AA-/	.	.	.
4AAA-/] 4AA-/	.	4.F/ 4.A-/ 4.d-/ 4.f/	.
[8DD-/ 8D-/	.	.	.
4DD-/] 4D-/	.	4.G-/ 4.A-/ 4.d-/ 4.e-/ 4.a-/	.
[8EE-/ [8E-/	.	.	.
=58	=58	=58	=58
*M4/4	*M4/4	*M4/4	*M4/4
*MM132	*MM132	*MM132	*MM132
*^	*	*^	*
6EE-/] 6E-/]	4r	.	4r	4G-/ 4A-/ 4c/ 4e-/ 4a-/	.
12AAA-/ 12AA-/	.	.	.	.	.
*v	*v	*	*	*	*
*clefG2	*clefG2	*	*	*
*^	*	*	*	*
4A-/ 4g-/ 4cc/	4r	.	4cc/	6f\ (6ff\	.
.	.	.	.	12e-\ 12ee-\	.
4e-/ [4g-/ 4dd-/	4r	.	8b-/L	12e-\ 12ee-\L	.
.	.	.	.	12b-\ 12bb-\	.
.	.	.	8dd-/J	.	.
.	.	.	.	12a-\ 12aa-\J	.
6g-/]	12f\L	.	4cc/	4a-\ 4aa-\)	.
.	12e-\	.	.	.	.
[12a-/	[12A-\J	.	.	.	.
*v	*v	*	*	*	*
*	*	*v	*v	*
=59	=59	=59	=59
6A-/] 6a-/]	.	4F/ 4A-/ 4d-/ 4f/	.
*clefF4	*clefF4	*	*
[12DD-/ 12D-/	.	.	.
6DD-/] 6D-/	.	4E-/ 4A-/ 4d-/ 4e-/	.
[12AAA-/ 12AA-/	.	.	.
6AAA-/] 6AA-/	.	4F/ 4A-/ 4d-/ 4f/	.
[12DD-/ 12D-/	.	.	.
6DD-/] 6D-/	.	4G/ 4B-/ 4f/ 4g/	.
[12DD-/ [12D-/	.	.	.
=60	=60	=60	=60
*^	*	*^	*
6DD-/] 6D-/]	4r	.	4r	4G/ 4B-/ 4en/ 4g/	.
12CC/ 12C/	.	.	.	.	.
*v	*v	*	*	*	*
*clefG2	*clefG2	*	*	*
*^	*	*	*	*
4c/ 4b-/ 4een/	4r	.	6a-\ (6aa-\	4een/	.
.	.	.	12g\ 12gg\	.	.
4r	4g\ [4b-\ 4ff\	.	12g\ 12gg\L	8dd-/L	.
.	.	.	12dd-\ 12ddd-\	.	.
.	.	.	.	8ff/J	.
.	.	.	12cc\ 12ccc\J	.	.
8b-/L]	12a-\L	.	4cc\ 4ccc\)	4een/	.
.	12g\	.	.	.	.
[8cc/J	.	.	.	.	.
.	[12c\J	.	.	.	.
*v	*v	*	*	*	*
*	*	*v	*v	*
=61	=61	=61	=61
*M12/8	*M12/8	*M12/8	*M12/8
*MM198	*MM198	*MM198	*MM198
4c/] 4cc/]	.	4.A-/ 4.f/ 4.a-/	.
*clefF4	*clefF4	*	*
[8FF/ 8F/	.	.	.
4FF/] 4F/	.	4.G/ 4.c/ 4.f/ 4.g/	.
[8CC/ 8C/	.	.	.
4CC/] 4C/	.	4.A-/ 4.c/ 4.f/ 4.a-/	.
[8FF/ 8F/	.	.	.
4FF/] 4F/	.	4.B-/ 4.dn/ 4.a-/ 4.b-/	.
[8FF-/ [8F-/	.	.	.
=62	=62	=62	=62
4FF-/] 4F-/]	.	4.c/ 4.a-/ 4.cc/	.
[8EE-/ 8E-/	.	.	.
8EE-\] 8E-\L	.	4.e-/ 4.a-/ 4.ee-/	.
8AA-\ 8A-\	.	.	.
8BB-\ 8B-\J	.	.	.
8C\ 8c\L	.	4.a-\ 4.ee-\ 4.aa-\	.
8Dn\ 8dn\	.	.	.
8E-\ 8e-\J	.	.	.
*clefG2	*clefG2	*	*
4c/ 4cc/	.	4.g\ 4.ee-\ 4.gg\	.
[8c/ [8cc/	.	.	.
=63	=63	=63	=63
*	*	*^	*
4c/] 4cc/]	.	4.g-\ 4.ee-\ 4.gg-\	4.r	.
*clefF4	*clefF4	*	*	*
8C\ (8c\	.	.	.	.
8D-\ 8d-\L	.	4.f\ 4.an\ 4.ff\	4.r	.
8C\ 8c\	.	.	.	.
8FF\ 8F\J	.	.	.	.
4.BB-\ 4.B-\)	.	4.f\ 4.b-\	4e-/ 4ee-/	.
.	.	.	8d-/ 8dd-/	.
[4.FF/ [4.F/	.	4.f\ 4.b-\	8e-/ 8ee-/L	.
.	.	.	8d-/ 8dd-/	.
.	.	.	8F/ 8f/J	.
*	*	*v	*v	*
=64	=64	=64	=64
4FF/] 4F/]	.	4.c/ 4.d-/ 4.g/ 4.cc/	.
8EE-/ 8E-/	.	.	.
8FF/ 8F/L	.	4.B-/ 4.d-/ 4.g/ 4.b-/	.
8EE-/ 8E-/	.	.	.
[8EEE-/ [8EE-/J	.	.	.
8EEE-/] 8EE-/L]	.	4.A-/ 4.c/ 4.a-/	.
8CC/ 8C/	.	.	.
8BBB-/ 8BB-/J	.	.	.
8AAA-/ 8AA-/L	.	4r	.
8AAA-/ 8AA-/	.	.	.
8GGG-/ 8GG-/J	.	8r	.
=65	=65	=65	=65
[4.FFF-/ [4.FF-/	.	4.a-\ 4.ff-\ 4.aa-\	p
8FFF-/] 8FF-/L]	.	4.g-\ 4.cc-\ 4.gg-\	.
8CC-/ 8C-/	.	.	.
8GG-/ 8G-/J	.	.	.
8AA-\ 8A-\L	.	4.f-\ 4.cc-\ 4.ff-\	.
8C-\ 8c-\	.	.	.
8F-\ 8f-\J	.	.	.
4A-\ 4a-\	.	4.e-/ 4.cc-/ 4.ee-/	.
8A-\ 8a-\	.	.	.
=66	=66	=66	=66
*	*	*^	*
2.A-\ 2.a-\	.	4.d-/ 4.dd-/	2.f-\	.
.	.	4.c-/ 4.cc-/	.	.
[4.C-\ [4.A-\ [4.f-\	.	4.d-/ 4.dd-/	2.a-\	.
4C-\] 4A-\] 4f-\]	.	4.e-/ 4.ee-/	.	.
8CC-/ 8C-/	.	.	.	.
*	*	*v	*v	*
=67	=67	=67	=67
8CC-/ 8C-/	.	4.a-\ 4.cc-\ 4.ff-\ 4.aa-\	.
[4FF-/ [4F-/	.	.	.
4FF-'/] 4F-'/]	.	4.g-\ 4.a-\ 4.cc-\ 4.gg-\	.
8FF-/ 8F-/	.	.	.
8FF-/ 8F-/	.	4.f-\ 4.a-\ 4.cc-\ 4.ff-\	.
[4AA-\ [4A-\	.	.	.
4.AA-\] 4.A-\]	.	4.e-/ 4.a-/ 4.cc-/ 4.ee-/	.
=68	=68	=68	=68
4.BB-\ 4.B-\	.	4.dn/ 4.f/ 4.b-/ 4.ddn/	f
4.FF/ 4.F/	.	4.c/ 4.f/ 4.an/ 4.cc/	.
4.BB-\ 4.B-\	.	2.d/ 2.f/ 2.b-/	.
4.AA-\ 4.A-\	.	.	.
=69	=69	=69	=69
[4.GGG-/ [4.GG-/	.	4.b-\ 4.dd-\ 4.gg-\ 4.bb-\	pp
8GGG-/] 8GG-/L]	.	4.a-\ 4.b-\ 4.dd-\ 4.aa-\	.
8DD-/ 8D-/	.	.	.
8AA-/ 8A-/J	.	.	.
8BB-\ 8B-\L	.	4.g-\ 4.dd-\ 4.gg-\	.
8D-\ 8d-\	.	.	.
8G-\ 8g-\J	.	.	.
4B-\ 4b-\	.	4.f\ 4.dd-\ 4.ff\	.
8B-\ 8b-\	.	.	.
=70	=70	=70	=70
*	*	*^	*
2.B-\ 2.b-\	.	4.e-/ 4.ee-/	2.g-\	.
.	.	4.d-/ 4.dd-/	.	.
[4.D-\ [4.B-\ [4.g-\	.	4.e-/ 4.ee-/	2.b-\	.
4D-\] 4B-\] 4g-\]	.	4.f/ 4.ff/	.	.
8DD-/ 8D-/	.	.	.	.
*	*	*v	*v	*
=71	=71	=71	=71
8DD-/ 8D-/	.	4.b-\ 4.dd-\ 4.gg-\ 4.bb-\	.
[4GG-/ [4G-/	.	.	.
4GG-/] 4G-/]	.	4.a-\ 4.b-\ 4.dd-\ 4.aa-\	.
8GG-/ 8G-/	.	.	.
8GG-/ 8G-/	.	4.g-\ 4.b-\ 4.dd-\ 4.gg-\	.
[4BB-\ [4B-\	.	.	.
4.BB-\] 4.B-\]	.	4.f\ 4.b-\ 4.dd-\ 4.ff\	.
=72	=72	=72	=72
4.C\ 4.Gn\ 4.c\	.	4.en/ 4.gn/ 4.cc/ 4.een/	.
4.C\ 4.G\ 4.c\	.	2.e-/ 2.g/ 2.cc/ 2.ee-/	.
4.EE-/ 4.E-/	.	.	.
4BB-\ 4E-\ 4B-\	.	4.d-/ 4.g/ 4.ee-/	.
[8E-\ [8e-\	.	.	.
=73	=73	=73	=73
*^	*	*	*
4.c/ 4.e-/ 4.a-/	4E-\] 4e-\]	.	4.cc\ 4.ee-\ 4.aa-\ 4.ccc\	f
.	[8AA-\ [8A-\	.	.	.
4.B-/ 4.e-/ 4.a-/	4AA-\] 4A-\]	.	4.b-\ 4.ee-\ 4.aa-\ 4.bb-\	.
.	8EE-\ [8E-\	.	.	.
4.c/ 4.e-/ 4.a-/	4EE-\ 4E-\]	.	4.cc\ 4.ee-\ 4.aa-\ 4.ccc\	.
.	[8AA-\ [8A-\	.	.	.
4.d-/ 4.e-/ 4.a-/ 4.b-/	4AA-\] 4A-\]	.	4.dd-\ 4.ee-\ 4.aa-\ 4.bb-\ 4.eee-\	.
.	[8BB-\ 8B-\	.	.	.
*v	*v	*	*	*
=74	=74	=74	=74
*M4/4	*M4/4	*M4/4	*M4/4
*MM132	*MM132	*MM132	*MM132
*^	*	*^	*
4d-/ 4g/ 4b-/	6BB-\] 6B-\	.	4dd-\ 4ee-\ 4gg\ 4bb-\ 4eee-\	4gg/	.
.	12EE-\ 12E-\	.	.	.	.
*v	*v	*	*	*	*
*clefG2	*clefG2	*	*	*
*^	*	*	*	*
4d-/ 4e-/ 4g/ 4dd-/	4r	.	4r	8ff/L	.
.	.	.	.	8a-/J	.
4d-/ 4e-/ 4a-/ 4dd-/	4r	.	6cc\ (6ccc\	4r	.
.	.	.	12b-\ 12bb-\	.	.
12c/ 12cc/L	4e-\ 4g\	.	12b-\ 12bb-\L	4e-/ 4g/ 4ee-/)	.
12B-/ 12b-/	.	.	12f\ 12ff\	.	.
[12cc/ [12ccc/J	.	.	12e-\ 12ee-\J	.	.
*v	*v	*	*	*	*
*	*	*v	*v	*
=75	=75	=75	=75
*clefF4	*clefF4	*	*
*^	*	*	*
4c/ 4e-/ 4a-/	6E\] 6e\]	.	4cc\ 4ee-\ 4aa-\ 4ccc\	.
.	12AA-\ [12A-\	.	.	.
4B-/ 4e-/ 4a-/	6AA-\ 6A-\]	.	4b-\ 4ee-\ 4aa-\ 4bb-\	.
.	12EE-\ [12E-\	.	.	.
4c/ 4e-/ 4a-/	6EE-\ 6E-\]	.	4cc\ 4ee-\ 4aa-\ 4ccc\	.
.	12AA-\ [12A-\	.	.	.
4c/ 4f/ 4cc/	6AA-\ 6A-\]	.	4ddn\ 4ff\ 4ccc\ 4dddn\	.
.	[12AA-\ [12A-\	.	.	.
=76	=76	=76	=76	=76
4dn/ 4f/ 4bn/	6AA-\] 6A-\]	.	.	.
*	*	*	*^	*
.	.	.	4r	4ddn\ 4ff\ 4bbn\ 4dddn\	.
.	12GG\ 12G\	.	.	.	.
*v	*v	*	*	*	*
*clefG2	*clefG2	*	*	*
*^	*	*	*	*
4G/ 4f/ 4bn/	4r	.	4bb/	6ee-\ (6eee-\	.
.	.	.	.	12dd\ 12ddd\	.
4dn/ [4f/ 4cc/	4r	.	8aa-/L	12dd\ 12ddd\L	.
.	.	.	.	12a-\ 12aa-\	.
.	.	.	8cc/J	.	.
.	.	.	.	12g\ 12gg\J)	.
6f/]	12e-\L	.	4bn/	4g\ 4gg\	.
.	12d\	.	.	.	.
[12g/	[12G\J	.	.	.	.
*	*	*	*v	*v	*
=77	=77	=77	=77	=77
4G/] 4g/]	6E-\ 6G\ 6c\	.	4e-/ 4g/ 4cc/ 4ee-/	.
*clefF4	*clefF4	*clefF4	*	*
.	[12CC\ [12C\	.	.	.
4Dn/ 4G/ 4c/	6CC\] 6C\]	.	4dn/ 4g/ 4cc/ 4ddn/	.
.	12GGG\ [12GG\	.	.	.
4E-/ 4G/ 4c/	6GGG\ 6GG\]	.	4e-/ 4g/ 4cc/ 4ee-/	.
.	12CC\ (12C\	.	.	.
4F#/ 4G#/ 4B#/	&(6BBB#\&) 6BB#\)	.	4d#/ 4g#/ 4b#/ 4dd#/	.
.	[12GGG#\ [12GG#\	.	.	.
*v	*v	*	*	*
=78	=78	=78	=78
*k[f#c#g#d#a#]	*k[f#c#g#d#a#]	*k[f#c#g#d#a#]	*k[f#c#g#d#a#]
*M12/8	*M12/8	*M12/8	*M12/8
*MM198	*MM198	*MM198	*MM198
*^	*	*	*
4.E/ 4.G#/ 4.c#/	4GGG#\] 4GG#\]	.	4.e/ 4.g#/ 4.cc#/ 4.ee/	.
.	[8CC#\ [8C#\	.	.	.
4.D#/ 4.G#/ 4.c#/	4CC#\] 4C#\]	.	4.d#/ 4.g#/ 4.cc#/ 4.dd#/	.
.	[8GG#\ [8G#\	.	.	.
4.E/ 4.G#/ 4.c#/	4GG#\] 4G#\]	.	4.e/ 4.g#/ 4.cc#/ 4.ee/	.
.	[8CC#\ [8C#\	.	.	.
4.F#/ 4.An/ 4.d#/	4CC#\] 4C#\]	.	4.f#\ 4.an\ 4.dd#\ 4.ff#\	.
.	[8BBB\ [8BB\	.	.	.
=79	=79	=79	=79	=79
4.G#/ 4.B/ 4.e/	4BBB\] 4BB\]	.	4.g#\ 4.b\ 4.ee\ 4.gg#\	.
.	[8EE\ [8E\	.	.	.
4.F#/ 4.B/ 4.e/	4EE\] 4E\]	.	4.f#\ 4.b\ 4.ee\ 4.ff#\	.
.	8BB\ [8B\	.	.	.
4.G#/ 4.B/ 4.e/	4BB\ 4B\]	.	4.g#\ 4.b\ 4.ee\ 4.gg#\	.
.	[8EE\ [8E\	.	.	.
4.A#/ 4.c##/ 4.g#/	4EE\] 4E\]	.	4.a#\ 4.cc##\ 4.gg#\ 4.aa#\	.
.	[8EE\ [8E\	.	.	.
=80	=80	=80	=80	=80
4.B/ 4.c##/ 4.g#/	4.EE\_ 4.E\_	.	4.b\ 4.cc##\ 4.gg#\ 4.bb\	.
4.r	8EE\] 8E\L]	.	4.f##\ 4.cc##\ 4.ff##\	.
.	8AA#\ 8A#\	.	.	.
.	8BB\ 8B\J	.	.	.
4.r	8E\ 8e\L	.	4.g#\ 4.cc##\ 4.gg#\	.
.	8BB\ 8B\	.	.	.
.	8EE\ 8E\J	.	.	.
4.r	8AAA#/ 8AA#/L	.	4.G#/ 4.c##/	.
.	8BBB/ 8BB/	.	.	.
.	8EEE/ 8EE/J	.	.	.
*v	*v	*	*	*
=81	=81	=81	=81
*met(C)	*met(C)	*met(C)	*met(C)
*M4/4	*M4/4	*M4/4	*M4/4
*MM132	*MM132	*MM132	*MM132
4DDD#/ 4DD#/	.	12d#'/L	.
.	.	12e'/	.
.	.	12G#'/J	.
12GGG#/ 12GG#/L	.	12c#'/L	.
12AAA#/ 12AA#/	.	12d#'/	.
12BBB/ 12BB/J	.	12G#'/J	.
[4EE/ [4E/	.	12B'/L	.
.	.	12c#'/	.
.	.	12G#'/J	.
8EE/] 8E/L]	.	12A#'/L	.
.	.	12B'/	.
8DD#/ 8D#/J	.	.	.
.	.	12G#'/J	.
=82	=82	=82	=82
4DDD#/ 4DD#/	.	12g#'/L	.
.	.	12an'/	.
.	.	12c#'/J	.
12CC#/ 12C#/L	.	12f#'/L	.
12DD#/ 12D#/	.	12g#'/	.
12EE/ 12E/J	.	12c#'/J	.
[4AAn\ [4An\	.	12e'/L	.
.	.	12f#'/	.
.	.	12c#'/J	.
8AA\] 8A\L]	.	12d#'/L	.
.	.	12e'/	.
8GG#\ 8G#\J	.	.	.
.	.	12c#'/J	.
=83	=83	=83	=83
*	*	*^	*
8DDD#/ 8DD#/L	.	4an\ 4cc#\	12e/ 12ee/L	.
.	.	.	12f#/ 12ff#/	.
8C#/ 8An/J	.	.	.	.
.	.	.	12c#/ 12cc#/J	.
8E\ 8c#\L	.	4a\ 4cc#\	12e/ 12ee/L	.
.	.	.	12f#/ 12ff#/	.
8C#\ 8A\J	.	.	.	.
.	.	.	12c#/ 12cc#/J	.
8DDD#/ 8DD#/L	.	4g#\ 4cc#\	12e/ 12ee/L	.
.	.	.	12f#/ 12ff#/	.
8C#/ 8G#/J	.	.	.	.
.	.	.	12c#/ 12cc#/J	.
8E\ 8c#\L	.	4g#\ 4cc#\	12e/ 12ee/L	.
.	.	.	12f#/ 12ff#/	.
8C#\ 8G#\J	.	.	.	.
.	.	.	12c#/ 12cc#/J	.
*	*	*v	*v	*
=84	=84	=84	=84
12DDD#/ 12DD#/L	.	4e/ 4f##/ 4cc#/ 4ee/	.
12AAAn/ 12AAn/	.	.	.
12AAA#/ 12AA#/J	.	.	.
12EE/ 12E/L	.	2c#/ 2f##/ 2cc#/	.
12CC##/ 12C##/	.	.	.
12DD#/ 12D#/J	.	.	.
12EE/ 12E/L	.	.	.
12CC##/ 12C##/	.	.	.
12DD#/ 12D#/J	.	.	.
12EE/ 12E/L	.	4F##/ 4f##/	.
12CC##/ 12C##/	.	.	.
12DD#/ 12D#/J	.	.	.
=85	=85	=85	=85
12EE/ 12E/L	.	[4G#/ [4g#/	f
12FF#/ 12F#/	.	.	.
12GGG#/ 12GG#/J	.	.	.
12DD#/ 12D#/L	.	16G#/] 16g#/LL]	.
.	.	16G#/ 16g#/	.
12EE/ 12E/	.	.	.
.	.	16G#/ 16g#/	.
12GGG#/ 12GG#/J	.	.	.
.	.	16G#/ 16g#/JJ	.
12CC#/ 12C#/L	.	4G#/ 4g#/	.
12DD#/ 12D#/	.	.	.
12GGG#/ 12GG#/J	.	.	.
12BBB/ 12BB/L	.	4G#/ 4g#/	.
12CC#/ 12C#/	.	.	.
12GGG#/ 12GG#/J	.	.	.
=86	=86	=86	=86
12AAA#/ 12AA#/L	.	4G#/ 4g#/	.
12BBB/ 12BB/	.	.	.
12GGG#/ 12GG#/J	.	.	.
(12B'\ 12e'\ 12b'\L	.	8g#\ 8ee\ (8gg#\L	.
12A#'\ 12e'\ 12a#'\	.	.	.
.	.	8b\ 8ee\ 8bb\J	.
12G#'\ 12e'\ 12g#'\J	.	.	.
12F#'\ 12B'\ 12f#'\L	.	8cc#\ 8gg#\ 8ccc#\L	.
12E'\ 12B'\ 12e'\	.	.	.
.	.	8dd#\ 8gg#\ 8ddd#\J	.
12D#\ 12B\ 12d#\J	.	.	.
12C#'\) 12E'\ 12c#'\L	.	8ee\ 8gg#\ 8eee\L	.
12BB'\ 12E'\ 12B'\	.	.	.
.	.	8gg#\ 8ggg#\J)	.
12GG#'\ 12E'\ 12G#'\J	.	.	.
=87	=87	=87	=87
12AAn/ 12An/L	.	[4c#/ [4cc#/	.
12BB/ 12B/	.	.	.
12CC#/ 12C#/J	.	.	.
12GG#/ 12G#/L	.	16c#/] 16cc#/LL]	.
.	.	16c#/ 16cc#/	.
12AA/ 12A/	.	.	.
.	.	16c#/ 16cc#/	.
12CC#/ 12C#/J	.	.	.
.	.	16c#/ 16cc#/JJ	.
12FF#/ 12F#/L	.	4c#/ 4cc#/	.
12GG#/ 12G#/	.	.	.
12CC#/ 12C#/J	.	.	.
12EE/ 12E/L	.	4c#/ 4cc#/	.
12FF#/ 12F#/	.	.	.
12CC#/ 12C#/J	.	.	.
=88	=88	=88	=88
12DD#/ 12D#/L	.	4c#/ 4cc#/	.
12EE/ 12E/	.	.	.
12CC#/ 12C#/J	.	.	.
*clefG2	*clefG2	*	*
(12e'/ 12an'/ 12ee'/L	.	8cc#\ 8aan\ (8ccc#\L	.
12d#'/ 12a'/ 12dd#'/	.	.	.
.	.	8ee\ 8aa\ 8eee\J	.
12c#'/ 12a'/ 12cc#'/J	.	.	.
12B'/ 12e'/ 12b'/L	.	8f#\ 8cc#\ 8ff#\L	.
12An'/ 12e'/ 12a'/	.	.	.
.	.	8g#\ 8cc#\ 8gg#\J	.
12G#'/ 12e'/ 12g#'/J	.	.	.
*clefF4	*clefF4	*	*
12F#'\ 12An'\ 12f#'\L	.	8an\ 8cc#\ 8aan\L	.
12E'\) 12A'\ 12e'\	.	.	.
.	.	8cc#\ 8ccc#\J)	.
12C#'\ 12A'\ 12c#'\J	.	.	.
=89	=89	=89	=89
*	*	*^	*
12CC#/ 12C#/L	.	4d#/ 4f##/ (4dd#/	2.r	.
12BB/ 12B/	.	.	.	.
12AA#/ 12A#/J	.	.	.	.
12GG##/ 12G##/L	.	8e/ 8f##/ 8ee/L	.	.
12AA#/ 12A#/	.	.	.	.
.	.	8d#/ 8f##/ 8dd#/J	.	.
12CC#/ 12C#/J	.	.	.	.
12BBB/ 12BB/L	.	8f##\ 8dd#\ 8ff#\L	.	.
12D#/ 12d#/	.	.	.	.
.	.	8g#\ 8dd#\ 8gg#\J	.	.
12GG#/ 12G#/J	.	.	.	.
4G#\ 4d#\ 4b\	.	6a#/ 6aa#/	4dd#\	.
.	.	12g#/ 12gg#/)	.	.
=90	=90	=90	=90	=90
12FF#\ 12F#\L	.	2.r	4g#\ 4b#\ (4gg#\	.
12E\ 12e\	.	.	.	.
12D#\ 12d#\J	.	.	.	.
12C##\ 12c##\L	.	.	8an\ 8b#\ 8aan\L	.
12D#\ 12d#\	.	.	.	.
.	.	.	8g#\ 8b#\ 8gg#\J	.
12FF#\ 12F#\J	.	.	.	.
12EE\ 12E\L	.	.	8b#\ 8gg#\ 8bb#\L	.
12G#\ 12g#\	.	.	.	.
.	.	.	8cc#\ 8gg#\ 8ccc#\J	.
12C#\ 12c#\J	.	.	.	.
*clefG2	*clefG2	*	*	*
4c#/ 4g#/ 4ee/	.	4gg#/	12dd#\ 12ddd#\L	.
.	.	.	12cc#\ 12ccc#\)	.
.	.	.	12g#\ (12gg#\J	.
*clefF4	*clefF4	*	*	*
=91	=91	=91	=91	=91
12DDD#/ 12DD#/L	.	8ee\ 8eee\L	4gg#/	.
12D#/ 12d#/	.	.	.	.
.	.	8dd#\ 8ddd#\J	.	.
12BB/ 12B/J	.	.	.	.
4G#\ 4d#\ 4g#\	.	12cc#\ 12ccc#\L	4gg#/	.
.	.	8b\ 8bb\	.	.
.	.	24a#\ 24aa#\Jk	.	.
12DDD#/ 12DD#/L	.	8a#\ 8aa#\L	4ee/	.
12E/ 12e/	.	.	.	.
.	.	8g#\ 8gg#\J	.	.
12BB/ 12B/J	.	.	.	.
4G#\ 4c##\ 4g#\	.	4f#\ 4ff#\	6cc##/	.
.	.	.	12e/ 12ee/	.
=92	=92	=92	=92	=92
8DDD#/ 8DD#/L	.	4r	12e/ 12ee/L	.
.	.	.	12d#/ 12dd#/	.
8DD#/ 8D#/J	.	.	.	.
.	.	.	12c#/ 12cc#/J	.
8D#/ 8c#/L	.	12B/ 12b/L	4f##\	.
.	.	12A#/ 12a#/)	.	.
8DD#/ 8D#/J	.	.	.	.
.	.	12B/ 12b/J	.	.
12EE\ 12E\L	.	4r	4G#/ 4e/ 4g#/	.
12AA#\ 12A#\	.	.	.	.
12BB\ 12B\J	.	.	.	.
12C#\ 12c#\L	.	4r	4r	.
12BB\ 12B\	.	.	.	.
12EE\ 12E\J	.	.	.	.
*	*	*v	*v	*
=93	=93	=93	=93
12BBB#/ 12BB#/L	.	4A#/ 4e/ 4g#/ 4a#/	.
12CC#/ 12C#/	.	.	.
12GG#/ 12G#/J	.	.	.
12CC##/ 12C##/L	.	4B#/ 4f#/ 4g#/ 4b#/	.
12DD#/ 12D#/	.	.	.
12GG#/ 12G#/J	.	.	.
12DD#/ 12D#/L	.	4c#/ 4g#/ 4cc#/	.
12EE/ 12E/	.	.	.
12GG#/ 12G#/J	.	.	.
12DD#/ 12D#/L	.	4c##/ 4g#/ 4bn/ 4cc##/	.
12EE/ 12E/	.	.	.
12GG#/ 12G#/J	.	.	.
=94	=94	=94	=94
12CC##/ 12C##/L	.	4d#/ 4g#/ 4b/ 4dd#/	.
12DD#/ 12D#/	.	.	.
12GG#/ 12G#/J	.	.	.
12B\ 12d#\ 12b\L	.	12bb^\ 12ddd#^\ 12bbb^\L	.
12A#\ 12a#\	.	12aa#\ 12aaa#\	.
12G#\ 12g#\J	.	12gg#\ 12ggg#\J	.
12F#\ 12f#\L	.	12ff#\ 12fff#\L	.
12E\ 12e\	.	12ee\ 12eee\	.
12D#\ 12d#\J	.	12dd#\ 12ddd#\J	.
12C#\ 12c#\L	.	12cc#\ 12ccc#\L	.
12BB\ 12B\	.	12b\ 12bb\	.
12GG#\ 12G#\J	.	12g#\ 12gg#\J	.
=95	=95	=95	=95
*^	*	*^	*
12CC##/ 12C##/L	4GG#\	.	12c##/ 12cc##/L	4g#\	.
12DD#/ 12D#/	.	.	12d#/ 12dd#/	.	.
12GG#/ 12G#/J	.	.	12g#/ 12gg#/J	.	.
12BB^/ 12D#^/ 12B^/L	2.r	.	12b^/ 12dd#^/ 12bb^/L	2.r	.
12AA#/ 12A#/	.	.	12a#/ 12aa#/	.	.
12GG#/ 12G#/J	.	.	12g#/ 12gg#/J	.	.
12FF#/ 12F#/L	.	.	12f#/ 12ff#/L	.	.
12EE/ 12E/	.	.	12e/ 12ee/	.	.
12DD#/ 12D#/J	.	.	12d#/ 12dd#/J	.	.
12CC#/ 12C#/L	.	.	12c#/ 12cc#/L	.	.
12BBB/ 12BB/	.	.	12B/ 12b/	.	.
12GGG#/ 12GG#/J	.	.	12G#/ 12g#/J	.	.
*	*	*	*v	*v	*
*	*	*	*clefF4	*clefF4
=96	=96	=96	=96	=96
*	*	*	*^	*
4GGG#\	12CCC##/ 12CC##/L	.	12C##\ 12c##\L	4G#/	.
.	12DDD#/ 12DD#/	.	12D#\ 12d#\	.	.
.	12GGG#/ 12GG#/J	.	12G#\ 12g#\J	.	.
*	*	*	*v	*v	*
*	*	*	*clefG2	*clefG2
*	*	*	*^	*
4r	12AAA#/ 12AA#/L	.	4r	12A#/ 12a#/L	.
.	12BBB/ 12BB/	.	.	12B/ 12b/	.
.	12CC#/ 12C#/J	.	.	12c#/ 12cc#/J	.
4GG#\	12CC##/ 12C##/L	.	4g#\	12c##/ 12cc##/L	.
.	12DD#/ 12D#/	.	.	12d#/ 12dd#/	.
.	12GG#/ 12G#/J	.	.	12g#/ 12gg#/J	.
12AA#\ 12A#\L	4r	.	12a#\ 12aa#\L	4r	.
12BB\ 12B\	.	.	12b\ 12bb\	.	.
12C#\ 12c#\J	.	.	12cc#\ 12ccc#\J	.	.
=97	=97	=97	=97	=97	=97
12C##\ 12c##\L	4G#/	.	12c##/ 12cc##/L	4g#\	p
12D#\ 12d#\	.	.	12d#/ 12dd#/	.	.
12G#\ 12g#\J	.	.	12g#/ 12gg#/J	.	.
12A#\ 12a#\L	2.r	.	12a#\ 12aa#\L	4r	.
12B\ 12b\	.	.	12b\ 12bb\	.	.
12c#\ 12cc#\J	.	.	12cc#\ 12ccc#\J	.	.
12c##\ 12cc##\L	.	.	4r	4r	.
12d#\ 12dd#\J	.	.	.	.	.
12r	.	.	.	.	.
8DD#\ 8D#\	.	.	8F##/ 8f##/	12cc##\ 12ccc##\L	ppp
.	.	.	.	12dd#\ 12ddd#\J	.
8r	.	.	8r	.	.
.	.	.	.	12r	.
*v	*v	*	*	*	*
=98	=98	=98	=98	=98
12EE/ 12E/L	p	[4G#/ (4g#/	12e\L	.
12FF#/ 12F#/	.	.	12f#\	.
12GGG#/ 12GG#/J	.	.	12G#\J	.
12DD#/ 12D#/L	.	16G#/] 16g#/LL	12d#\L	.
.	.	16G#/ 16g#/)	.	.
12EE/ 12E/	.	.	12e\	.
.	.	16G#/ 16g#/	.	.
12GGG#/ 12GG#/J	.	.	12G#\J	.
.	.	16G#/ 16g#/JJ	.	.
12CC#/ 12C#/L	.	4G#/ 4g#/	12c#\L	.
12DD#/ 12D#/	.	.	12d#\	.
12GGG#/ 12GG#/J	.	.	12G#\J	.
12BBB/ 12BB/L	.	4G#/ 4g#/	12B\L	.
12CC#/ 12C#/	.	.	12c#\	.
12GGG#/ 12GG#/J	.	.	12G#\J	.
=99	=99	=99	=99	=99
12AAA#/ 12AA#/L	.	4G#/ 4g#/	12A#\L	.
12BBB/ 12BB/	.	.	12B\	.
12GGG#/ 12GG#/J	.	.	12G#\J	.
12BB\ 12B\L	.	4r	12b/L	.
12AA#\ 12A#\	.	.	12a#/	.
12GG#\ 12G#\J	.	.	12g#/J	.
12FF#/ 12F#/L	.	4r	12f#/L	.
12EE/ 12E/	.	.	12e/	.
12DD#/ 12D#/J	.	.	12d#/J	.
12CC#/ 12C#/L	.	4r	12c#/L	.
12BBB/ 12BB/	.	.	12B/	.
12GGG#/ 12GG#/J	.	.	12G#/J	.
*	*	*v	*v	*
=100	=100	=100	=100
12CC#/ 12C#/L	.	12c#/L	pp
12BBB/ 12BB/	.	12B/	.
12GGG#/ 12GG#/J	.	12G#/J	.
12BB\ 12B\L	.	12b/L	.
12AA#\ 12A#\	.	12a#/	.
12GG#\ 12G#\J	.	12g#/J	.
12FF#/ 12F#/L	.	12f#/L	.
12EE/ 12E/	.	12e/	.
12DD#/ 12D#/J	.	12d#/J	.
12CC#/ 12C#/L	.	12c#/L	.
12BBB/ 12BB/	.	12B/	.
12GGG#/ 12GG#/J	.	12G#/J	.
=101	=101	=101	=101
12CC#/ 12C#/L	.	12c#/L	ppp
12BBB/ 12BB/	.	12B/	.
12GGG#/ 12GG#/J	.	12G#/J	.
12EE/ 12E/L	.	12e/L	.
12CC#/ 12C#/	.	12c#/	.
12BBB/ 12BB/J	.	12B/J	.
12GG#/ 12G#/L	.	12g#/L	.
12EE/ 12E/	.	12e/	.
12DD#/ 12D#/J	.	12d#/J	.
12C#\ 12c#\L	.	12cc#/L	.
12BB\ 12B\	.	12b/	.
12GG#\ 12G#\J	.	12g#/J	.
=102	=102	=102	=102
4G#\ 4g#\	.	4gg#\	.
4r	.	4r	.
2GGG#/ 2DD#/ 2GG#/	.	2D#/ 2G#/ 2d#/	.
=103	=103	=103	=103
1GGG# 1DD# 1GG#	.	1D# 1G# 1d#	.
==	==	==	==
*-	*-	*-	*-
!!!ENC: Craig Stuart Sapp
!!!END: 2004/09/04/
!!!RWG: meter modulations added by encoder due to rhythmic encoding complications
